!!!COM: Haydn, Franz Joseph
!!!OTL: String Quartet in B-flat Major
!!!OPS: Opus 71
!!!ONM: No. 1
!!!OMD: Adagio
!!!OMV: 2
!!!SCT: H III:69
!!!SCA: Thematisch-bibliographisches Werkevererzeichnis (A. van Hoboken)
!!!YOR: Trautwein Edition
!!!ENC: Frances Bennion
!!!CDT: 1732/3/31/-1809/5/31/
!!!CNT: Oesterreich
!!!YEC: Copyright (c) 1994, 2000 Center for Computer Assisted Research in the Humanities
!!!YEM: Rights to all derivative editions reserved.
!!!YEM: Refer to licensing agreement for further details.
!!!YEN: United States of America
**kern	**kern	**kern	**kern
*k[b-]	*k[b-]	*k[b-]	*k[b-]
*F:	*F:	*F:	*F:
*clefF4	*clefC3	*clefF	*clefF
*M6/8	*M6/8	*M6/8	*M6/8
8.F	8.A	2.f	[2.ff
16G	16B-	.	.
8A	8c	.	.
8.B-	8.d	.	.
16c	16e	.	.
8d	8f	.	.
=2	=2	=2	=2
8.c	2g	2b-	8ff]
.	.	.	16.ee
16d	.	.	.
.	.	.	32dd
8e	.	.	8cc
4f	.	.	8.cc
.	8a	8a	.
.	.	.	16a
8r	8r	8r	8cc
=3	=3	=3	=3
4.r	8.A	8.c	4.f
.	16G	16B-	.
.	8F	8A	.
4.C	4.E	4.B-	8f#
.	.	.	8g
.	.	.	8g
=4	=4	=4	=4
4.E	8.B-	8.d	4.g
.	16A	16c	.
.	8G	8B-	.
4.F	4.F	8B	8g#
.	.	8c	8a
.	.	8c	8a
=5	=5	=5	=5
4.r	8.a	8.cc	4.ff
.	16g	16b-	.
.	8f	8a	.
8d-	4.e	4.b-	8ff#
8c	.	.	8gg
8c	.	.	8gg
=6	=6	=6	=6
4.e	8.g	8.b-	4.gg
.	16a	16cc	.
.	8b-	8dd-	.
4.f	8b-	8dd-	8gg#
.	8a	8cc	8aa
.	8a	8cc	8aa
=7	=7	=7	=7
8.D	8.f	8.ff	8.aa
16E	16g	16ee	16gg
8F	8a	8dd	8ff
8G	8b-	8cc#	8ee
16F	16a	16dd	16ff
16r	16r	16r	16r
16D	16f	16ff	16aa
16r	16r	16r	16r
=8	=8	=8	=8
4G	4g	8.e	8.cc
.	.	16f	16dd
8GG	8f	8d	8b
8C	8e	8e	8cc
4r	4r	4r	8r
.	.	.	8r
=9	=9	=9	=9
8.A-	8.c	8.cc	8.ee-
16B-	16d-	16b-	16dd-
8c	8e-	8a-	8cc
4.d-	[4.f	[4.a-	8cc
.	.	.	8b-
.	.	.	8b-
=10	=10	=10	=10
4.d	2f]	2a-]	4b-
.	.	.	16cc
.	.	.	16b-
4.e-	.	.	4b-
.	8e-	8g	.
.	8e-	8g	8b
=11	=11	=11	=11
4.e	2g	2b-	4cc
.	.	.	16dd-
.	.	.	16cc
4f	.	.	4.cc
.	8f	8a-	.
8e-	8g	[8cc	.
=12	=12	=12	=12
4.d-	2f	8cc]	8.ff
.	.	8b	.
.	.	.	16gg
.	.	8f	16aa-
.	.	.	16b
8c	.	8g	8.cc
4r	8e	4r	.
.	.	.	16cc#
.	8r	.	16dd
.	.	.	16ee
=13	=13	=13	=13
8.F	8.A	2.f	[2.ff
16G	16B-	.	.
8A	8c	.	.
8.B-	8.d	.	.
16c	16e	.	.
8d	8f	.	.
=14	=14	=14	=14
8.c	2g	2b-	8ff]
.	.	.	16.ee
16d	.	.	.
.	.	.	32dd
8e	.	.	8cc
4f	.	.	8.cc
.	8a	8a	.
.	.	.	16a
8r	8r	8r	8cc
=15	=15	=15	=15
4.r	8.A	8.c	4.f
.	16G	16B-	.
.	8F	8A	.
4.C	4.E	4.B-	8f#
.	.	.	8g
.	.	.	8g
=16	=16	=16	=16
4.FF	4.E-	4.c	8g#
.	.	.	8a
.	.	.	8a
8DD	8D	8f 8B-	8a
8BB- 8DD	8d 8f	8f 8B-	8b-
8DD 8BB-	8f 8d	8f 8B-	8b-
=17	=17	=17	=17
4DD 4BB-	4f 4d	4f 4B-	8.b-
.	.	.	32cc
.	.	.	32dd
2r	2r	2r	48ee-
.	.	.	48ff
.	.	.	48gg
.	.	.	48aa
.	.	.	48bb-
.	.	.	48ccc
.	.	.	8ddd
.	.	.	8bb-
.	.	.	8gg
=18	=18	=18	=18
4.c	8.g	8.b-	4.ee
.	16a	16a	.
.	8b-	8g	.
4d	4a	4f	4ff
8r	8r	8r	8r
=19	=19	=19	=19
4F#	4d	4a	8.dd
.	.	.	16cc
8G	8d	8b-	8b-
8E	8c	8g	8cc
8F	8c	8a	8a
8BB-	8d	8g	16.b-
.	.	.	32g
=20	=20	=20	=20
4.C	8.A	4c	8.f
.	16B-	.	16g
.	8G	8B-	8e
8F	8F	8A	8f
4r	4r	4r	8r
.	.	.	8r
=21	=21	=21	=21
4.C	8.A	4c	8.f
.	16B-	.	16g
.	8G	8B-	8e
8F	8F	16A	8f
.	.	16c	.
8F	8A	16B	8r
.	.	16c	.
8F	8A	16B	8r
.	.	16c	.
=22	=22	=22	=22
4.G	4.B-	4.e	16r
.	.	.	16cc
.	.	.	16b
.	.	.	16cc
.	.	.	16b
.	.	.	16cc
4.A	4.c	4.f	32cc
.	.	.	32ff
.	.	.	32ee
.	.	.	32gg
.	.	.	32ff
.	.	.	32aa
.	.	.	32gg
.	.	.	32bb-
.	.	.	16aa
.	.	.	16ccc
=23	=23	=23	=23
4.G	4.B-	4.e	16r
.	.	.	16cc
.	.	.	16b
.	.	.	16cc
.	.	.	16b
.	.	.	16cc
4.A-	4.c	4.f	32cc
.	.	.	32ff
.	.	.	32ee
.	.	.	32gg
.	.	.	32ff
.	.	.	32aa-
.	.	.	32gg
.	.	.	32bb-
.	.	.	16aa-
.	.	.	16ccc
=24	=24	=24	=24
2.B-	16r	16r	4.ccc
.	16d-	16ff	.
.	16c	16ee	.
.	16d-	16ff	.
.	16c	16ee	.
.	16d-	16ff	.
.	16r	16r	[4.bb-
.	16e-	16gg-	.
.	16d	16ff	.
.	16e-	16gg-	.
.	16f	16dd	.
.	16g-	16ee-	.
=25	=25	=25	=25
[2A-	16r	16r	8bb-]
.	16g-	16cc	.
.	16r	16r	8aa-
.	16f	16dd-	.
.	16r	16r	8gg-
.	16e-	16cc	.
.	16r	16r	8ff
.	16d-	16g	.
8A-]	16r	16r	8ee-
.	16c	16g-	.
8B-	16r	16r	[8dd-
.	16B-	16f	.
=26	=26	=26	=26
4.G-	4.B-	4.d-	16dd-]
.	.	.	16e-
.	.	.	16d
.	.	.	16e-
.	.	.	16g-
.	.	.	16b-
4.AA-	4.E-	4.g-	16b-
.	.	.	16d-
.	.	.	16c
.	.	.	16d-
.	.	.	16c
.	.	.	16e-
=27	=27	=27	=27
4D-	4F	4f	16d-
.	.	.	16e-
.	.	.	16f
.	.	.	16g-
2r	2r	2r	16g
.	.	.	16a-
.	.	.	16a
.	.	.	16b-
.	.	.	16b
.	.	.	16cc
.	.	.	16dd-
.	.	.	16ff
=28	=28	=28	=28
4.GG-	4.B-	4.d-	16ff
.	.	.	16e-
.	.	.	16d
.	.	.	16e-
.	.	.	16g-
.	.	.	16b-
4.AA-	4.E-	4.g-	16b-
.	.	.	16d-
.	.	.	16c
.	.	.	16d-
.	.	.	16c
.	.	.	16e-
=29	=29	=29	=29
4.D-	16F	16f	4d-
.	16f	16a-	.
.	16e	16g	.
.	16f	16a-	.
.	16e	16g	8.r
.	16f	16a-	.
4.AA-	4.g-	4.b--	.
.	.	.	16ee-
.	.	.	16dd
.	.	.	16ee-
.	.	.	16gg-
.	.	.	16cc
=30	=30	=30	=30
4.D-	16f	16a-	4dd-
.	16f	16a-	.
.	16e	16g	.
.	16f	16a-	.
.	16e	16g	8.r
.	16f	16a-	.
4.AA-	4.g-	4.b--	.
.	.	.	16ee-
.	.	.	16dd
.	.	.	16ee-
.	.	.	16gg-
.	.	.	16cc
=31	=31	=31	=31
4.d-	[2.f	[2.a-	16dd-
.	.	.	16ff
.	.	.	16ee
.	.	.	16ff
.	.	.	16ee
.	.	.	16ff
4.c	.	.	16r
.	.	.	16ff
.	.	.	16ee
.	.	.	16ff
.	.	.	16ee
.	.	.	16ff
=32	=32	=32	=32
4.B	4f]	4.a-]	16r
.	.	.	16ff
.	.	.	16ee
.	.	.	16ff
.	8B	.	16aa-
.	.	.	16ff
8c	16c	8g	8ee
.	16c	.	.
4r	16B	8r	8r
.	16c	.	.
.	16B	8a-	8cc
.	16c	.	.
=33	=33	=33	=33
2r	16r	8g	8b-
.	16c	.	.
.	16B	8r	8r
.	16c	.	.
.	16d-	8f	8a-
.	16B	.	.
.	8c	8e	16g
.	.	.	16c
8r	8r	4r	16B
.	.	.	16c
8FF	8A-	.	16d-
.	.	.	16c
=34	=34	=34	=34
8EE	8G	2.r	16r
.	.	.	16c
8r	8r	.	16B
.	.	.	16c
8DD	8F	.	16B
.	.	.	16c
8CC	8E	.	32B
.	.	.	32c
.	.	.	32d
.	.	.	32c
4r	4r	.	32e
.	.	.	32d
.	.	.	32f
.	.	.	32e
.	.	.	32g
.	.	.	32f
.	.	.	32a
.	.	.	32g
=35	=35	=35	=35
2.r	2.r	2.r	16b-
.	.	.	16g
.	.	.	16e
.	.	.	16f
.	.	.	16g
.	.	.	16a
.	.	.	16b-
.	.	.	16b
.	.	.	16cc
.	.	.	16cc#
.	.	.	16dd
.	.	.	16ee
=36	=36	=36	=36
8.F	8.A	2.f	[2.ff
16G	16B-	.	.
8A	8c	.	.
8.B-	8.d	.	.
16c	16e	.	.
8d	8f	.	.
=37	=37	=37	=37
8.c	2g	2b-	8ff]
.	.	.	16.ee
16d	.	.	.
.	.	.	32dd
8e	.	.	8cc
4f	.	.	8.cc
.	8a	8a	.
.	.	.	16a
8r	8r	8r	8cc
=38	=38	=38	=38
4.r	8.A	8.c	4.f
.	16G	16B-	.
.	8F	8A	.
4.C	4.E	4.B-	8f#
.	.	.	8g
.	.	.	8g
=39	=39	=39	=39
4.E	8.B-	8.d	4.g
.	16A	16c	.
.	8G	8B-	.
4.F	4.F	8B	8f#
.	.	8c	8a
.	.	8c	8a
=40	=40	=40	=40
4.r	8.a	8.cc	4.ff
.	16g	16b-	.
.	8f	8a	.
8d-	4.e	4.b-	8ff#
8c	.	.	8gg
8c	.	.	8gg
=41	=41	=41	=41
4.e	8.g	8.b-	4.gg
.	16a	16cc	.
.	8b-	8dd-	.
4.f	8b-	8dd-	8gg#
.	8a	8cc	8aa
.	8a	8cc	8aa
=42	=42	=42	=42
8.D	8.f	8.ff	8.aa
16E	16g	16ee	16gg
8F	8a	8dd	8ff
8G	8b-	8cc#	8ee
16F	16a	16dd	16ff
16r	16r	16r	16r
16D	16f	16ff	16aa
16r	16r	16r	16r
=43	=43	=43	=43
4G	4g	8.e	8.cc
.	.	16f	16dd
8GG	8f	8d	8b
8C	8e	8e	8cc
4r	4r	4r	8r
.	.	.	8r
=44	=44	=44	=44
8.A-	8.c	8.cc	8.ee-
16B-	16d-	16b-	16dd-
8c	8e-	8a-	8cc
4.d-	[4.f	[4.a-	8cc
.	.	.	8b-
.	.	.	8b-
=45	=45	=45	=45
4.d	2f]	2a-]	4b-
.	.	.	16cc
.	.	.	16b-
4.e-	.	.	4b-
.	8e-	8g	.
.	8e-	8g	8b
=46	=46	=46	=46
4.e	2g	2b-	4cc
.	.	.	16dd-
.	.	.	16cc
4f	.	.	4.cc
.	8f	8a-	.
8e-	8g	[8cc	.
=47	=47	=47	=47
4.d-	2f	8cc]	8.ff
.	.	8b	.
.	.	.	16gg
.	.	8f	16aa-
.	.	.	16b
8c	.	8g	8.cc
4r	8e	4r	.
.	.	.	16cc
.	8r	.	16dd
.	.	.	16ee
=48	=48	=48	=48
8.F	8.A	2.f	[2.ff
16G	16B-	.	.
8A	8c	.	.
8.B-	8.d	.	.
16c	16e	.	.
8d	8f	.	.
=49	=49	=49	=49
8.c	2g	2b-	8ff]
.	.	.	16.ee
16d	.	.	.
.	.	.	32dd
8e	.	.	8cc
4f	.	.	8.cc
.	8a	8a	.
.	.	.	16a
8r	8r	8r	8cc
=50	=50	=50	=50
4.r	8.A	8.c	4.f
.	16G	16B-	.
.	8F	8A	.
4.C	4.E	4.B-	8f#
.	.	.	8g
.	.	.	8g
=51	=51	=51	=51
4.FF	4.E-	4.c	8g#
.	.	.	8a
.	.	.	8a
8DD	8D	8B- 8f	8a
8BB- 8DD	8f 8d	8B- 8f	8b- 8d
8BB- 8DD	8f 8d	8f 8B-	8b- 8d
=52	=52	=52	=52
4DD 4BB-	4f 4d	4B- 4f	8.b- 8.d
.	.	.	32cc
.	.	.	32dd
2r	2r	2r	48ee-
.	.	.	48ff
.	.	.	48gg
.	.	.	48aa
.	.	.	48bb-
.	.	.	48ccc
.	.	.	8ddd
.	.	.	8bb-
.	.	.	8gg
=53	=53	=53	=53
4.c	8.g	8.b-	4.ee
.	16a	16a	.
.	8b-	8g	.
4d	4a	4f	4ff
8r	8r	8r	8r
=54	=54	=54	=54
4F#	4d	4a	8.dd
.	.	.	16cc
8G	8d	8b-	8b-
8E	8c	8g	8cc
8F	8c	8a	8a
8BB-	8d	8g	16.b-
.	.	.	32g
=55	=55	=55	=55
4.C	8.A	4c	8.f
.	16B-	.	16g
.	8G	8B-	8e
4FF	16F	8A	16f
.	16A	.	16c
.	16G#	4r	16B
.	16A	.	16c
8r	16G#	.	16B
.	16A	.	16c
=56	=56	=56	=56
4.C	16B-	16r	4.G 4.e
.	16B-	16d-	.
.	16A	16c	.
.	16B-	16d-	.
.	16A	16c	.
.	16B-	16d-	.
4FF	16A	4c	16A 16f
.	16A	.	16c
.	16G#	.	16B
.	16A	.	16c
8r	16G#	8r	16B
.	16A	.	16c
=57	=57	=57	=57
4.C	16B-	16r	4.G 4.e
.	16B-	16d-	.
.	16A	16c	.
.	16B-	16d-	.
.	16A	16c	.
.	16B-	16d-	.
16r	8A	8c	8A 8f
16E	.	.	.
16F	8r	8r	8r
16BB	.	.	.
16C	8f	8c	8a
16EE	.	.	.
=58	=58	=58	=58
8FF	8f	8A	8f
8r	8r	8r	8r
8FF	8c	8A	8f
8FF	8c	8A	8f
4r	4r	4r	8r
.	.	.	8r
==	==	==	==
*-	*-	*-	*-
!!!RWG1: This file contains only pitch and duration data.
!!!RWG2: Transposing instruments are not transposed.
!!!RWG3: Spines may have incompatible meters.
!!!RWG4: Durations of rests and tied notes may be interpreted.
!!!RWG: Key is interpreted using the Humdrum key tool.
!!!GTL: 6 Quartetti ("Apponyi")
!!!AFT: stage1
!!!END: 1997/04/15
!!!KEY: 59707624
!!!EMD: Converted from MuseData to Humdrum Dec 16, 2000, by Andreas Kornstaedt using muse2kern.
!!!EMD: Manual editing by Craig Sapp, Nov 2001
